icon/fa/tent.svg

<svg xmlns="http://www.w3.org/2000/svg" viewBox="0 0 576 512"><!--! Font Awesome Free 6.1.2 by @fontawesome - https://fontawesome.com License - https://fontawesome.com/license/free (Icons: CC BY 4.0, Fonts: SIL OFL 1.1, Code: MIT License) Copyright 2022 Fonticons, Inc.--><path d="M269.4 5.961c11.1-7.948 26.1-7.948 37.2 0l224 159.139c7.4 6.1 12.2 14.3 13.2 23.4l32 288c1 9-1.9 18.1-8 24.8-6 6.8-14.7 10.7-23.8 10.7H416L288 288v224H32c-9.1 0-17.77-3.9-23.844-10.7-6.07-6.7-8.965-15.8-7.96-24.8l32.004-288c1-9.1 5.8-17.3 13.2-23.4l224-159.139z"/></svg>

<svg xmlns="http://www.w3.org/2000/svg" viewBox="0 0 576 512" height="1em" width="1em">
<!--! Font Awesome Free 6.1.2 by @fontawesome - https://fontawesome.com License - https://fontawesome.com/license/free (Icons: CC BY 4.0, Fonts: SIL OFL 1.1, Code: MIT License) Copyright 2022 Fonticons, Inc.-->
  <path d="M269.4 5.961C280.5-1.987 295.5-1.987 306.6 5.961L530.6 165.1C538 171.2 542.8 179.4 543.8 188.5L575.8 476.5C576.8 485.5 573.9 494.6 567.8 501.3C561.8 508.1 553.1 512 544 512H416L288 288V512H32C22.9 512 14.23 508.1 8.156 501.3C2.086 494.6-.8093 485.5 .1958 476.5L32.2 188.5C33.2 179.4 38 171.2 45.4 165.1L269.4 5.961z"/>
</svg>
